mail0.svg

<svg xmlns="http://www.w3.org/2000/svg"  viewBox="0 0 30 30" width="30px" height="30px"><path d="M 4 5 C 2.9069372 5 2 5.9069372 2 7 L 2 23 C 2 24.093063 2.9069372 25 4 25 L 26 25 C 27.093063 25 28 24.093063 28 23 L 28 7 C 28 5.9069372 27.093063 5 26 5 L 4 5 z M 6.6992188 7 L 23.300781 7 L 15 13.134766 L 6.6992188 7 z M 5 9.4746094 L 15 16.865234 L 25 9.4746094 L 25 23 L 5 23 L 5 9.4746094 z"/></svg>

<svg xmlns="http://www.w3.org/2000/svg" xmlns:xlink="http://www.w3.org/1999/xlink" viewBox="0,0,256,256" width="30px" height="30px" fill-rule="nonzero"><g fill="#ffffff" fill-rule="nonzero" stroke="none" stroke-width="1" stroke-linecap="butt" stroke-linejoin="miter" stroke-miterlimit="10" stroke-dasharray="" stroke-dashoffset="0" font-family="none" font-weight="none" font-size="none" text-anchor="none" style="mix-blend-mode: normal"><g transform="scale(8.53333,8.53333)"><path d="M4,5c-1.09306,0 -2,0.90694 -2,2v16c0,1.09306 0.90694,2 2,2h22c1.09306,0 2,-0.90694 2,-2v-16c0,-1.09306 -0.90694,-2 -2,-2zM6.69922,7h16.60156l-8.30078,6.13477zM5,9.47461l10,7.39062l10,-7.39062v13.52539h-20z"></path></g></g></svg>
